public/docker-old.svg

<?xml version="1.0" encoding="UTF-8" standalone="no" ?>
<!DOCTYPE svg PUBLIC "-//W3C//DTD SVG 1.1//EN" "http://www.w3.org/Graphics/SVG/1.1/DTD/svg11.dtd">
<svg xmlns="http://www.w3.org/2000/svg" xmlns:xlink="http://www.w3.org/1999/xlink" version="1.1" width="1080" height="1080" viewBox="0 0 1080 1080" xml:space="preserve">
<desc>Created with Fabric.js 5.2.4</desc>
<defs>
</defs>
<rect x="0" y="0" width="100%" height="100%" fill="transparent"></rect>
<g transform="matrix(1 0 0 1 540 540)" id="e9744c2e-bd5a-4271-84cb-b1436f78d549"  >
</g>
<g transform="matrix(1 0 0 1 540 540)" id="a80d812b-bd1d-4b93-9e2b-94c6c4d1eccb"  >
<rect style="stroke: none; stroke-width: 1; stroke-dasharray: none; stroke-linecap: butt; stroke-dashoffset: 0; stroke-linejoin: miter; stroke-miterlimit: 4; fill: rgb(255,255,255); fill-rule: nonzero; opacity: 1; visibility: hidden;" vector-effect="non-scaling-stroke"  x="-540" y="-540" rx="0" ry="0" width="1080" height="1080" />
</g>
<g transform="matrix(0.42 0 0 0.42 5072.61 607.32)"  >
<g style="" vector-effect="non-scaling-stroke"   >
		<g transform="matrix(20.41 0 0 20.41 -11597.14 -799.85)"  >
<path style="stroke: none; stroke-width: 1; stroke-dasharray: none; stroke-linecap: butt; stroke-dashoffset: 0; stroke-linejoin: miter; stroke-miterlimit: 4; fill: rgb(6,29,47); fill-rule: nonzero; opacity: 1;" vector-effect="non-scaling-stroke"  transform=" translate(-20.27, -15.5)" d="M 8.7 24 C 7.6 24 6.6 23.1 6.6 22 C 6.6 20.9 7.5 20 8.7 20 C 9.899999999999999 20 10.799999999999999 20.9 10.799999999999999 22 C 10.799999999999999 23.1 9.799999999999999 24 8.7 24 z M 34.5 13.1 C 34.3 11.5 33.3 10.2 32 9.2 L 31.5 8.799999999999999 L 31.1 9.299999999999999 C 30.3 10.2 30 11.799999999999999 30.1 13 C 30.200000000000003 13.9 30.5 14.8 31 15.5 C 30.6 15.7 30.1 15.9 29.7 16.1 C 28.8 16.400000000000002 27.9 16.5 27 16.5 L 1.1 16.5 L 1 17.1 C 0.8 19 1.1 21 1.9 22.8 L 2.3 23.5 L 2.3 23.6 C 4.699999999999999 27.6 9 29.400000000000002 13.7 29.400000000000002 C 22.7 29.400000000000002 30.099999999999998 25.500000000000004 33.599999999999994 17.1 C 35.89999999999999 17.200000000000003 38.199999999999996 16.6 39.3 14.400000000000002 L 39.599999999999994 13.900000000000002 L 39.099999999999994 13.600000000000001 C 37.8 12.8 35.99999999999999 12.700000000000001 34.49999999999999 13.100000000000001 z M 21.6 11.5 L 17.700000000000003 11.5 L 17.700000000000003 15.4 L 21.6 15.4 L 21.6 11.5 z M 21.6 6.6 L 17.700000000000003 6.6 L 17.700000000000003 10.5 L 21.6 10.5 L 21.6 6.6 z M 21.6 1.5999999999999996 L 17.700000000000003 1.5999999999999996 L 17.700000000000003 5.5 L 21.6 5.5 L 21.6 1.6 z M 26.400000000000002 11.5 L 22.500000000000004 11.5 L 22.500000000000004 15.4 L 26.400000000000002 15.4 L 26.400000000000002 11.5 z M 11.900000000000002 11.5 L 8 11.5 L 8 15.4 L 11.9 15.4 L 11.9 11.5 z M 16.800000000000004 11.5 L 12.900000000000004 11.5 L 12.900000000000004 15.4 L 16.800000000000004 15.4 L 16.800000000000004 11.5 z M 7.100000000000005 11.5 L 3.2 11.5 L 3.2 15.4 L 7.1 15.4 L 7.1 11.5 z M 16.800000000000004 6.6 L 12.900000000000004 6.6 L 12.900000000000004 10.5 L 16.800000000000004 10.5 L 16.800000000000004 6.6 z M 11.900000000000004 6.6 L 8 6.6 L 8 10.5 L 11.9 10.5 L 11.9 6.6 z" stroke-linecap="round" />
</g>
		<g transform="matrix(20.41 0 0 20.41 2.67 0.32)" clip-path="url(#CLIPPATH_14)"  >
<clipPath id="CLIPPATH_14" >
	<path transform="matrix(1 0 0 1 -568.33 -39.2) translate(-20.27, -15.5)" d="M 8.7 24 C 7.6 24 6.6 23.1 6.6 22 C 6.6 20.9 7.5 20 8.7 20 C 9.899999999999999 20 10.799999999999999 20.9 10.799999999999999 22 C 10.799999999999999 23.1 9.799999999999999 24 8.7 24 z M 34.5 13.1 C 34.3 11.5 33.3 10.2 32 9.2 L 31.5 8.799999999999999 L 31.1 9.299999999999999 C 30.3 10.2 30 11.799999999999999 30.1 13 C 30.200000000000003 13.9 30.5 14.8 31 15.5 C 30.6 15.7 30.1 15.9 29.7 16.1 C 28.8 16.400000000000002 27.9 16.5 27 16.5 L 1.1 16.5 L 1 17.1 C 0.8 19 1.1 21 1.9 22.8 L 2.3 23.5 L 2.3 23.6 C 4.699999999999999 27.6 9 29.400000000000002 13.7 29.400000000000002 C 22.7 29.400000000000002 30.099999999999998 25.500000000000004 33.599999999999994 17.1 C 35.89999999999999 17.200000000000003 38.199999999999996 16.6 39.3 14.400000000000002 L 39.599999999999994 13.900000000000002 L 39.099999999999994 13.600000000000001 C 37.8 12.8 35.99999999999999 12.700000000000001 34.49999999999999 13.100000000000001 z M 21.6 11.5 L 17.700000000000003 11.5 L 17.700000000000003 15.4 L 21.6 15.4 L 21.6 11.5 z M 21.6 6.6 L 17.700000000000003 6.6 L 17.700000000000003 10.5 L 21.6 10.5 L 21.6 6.6 z M 21.6 1.5999999999999996 L 17.700000000000003 1.5999999999999996 L 17.700000000000003 5.5 L 21.6 5.5 L 21.6 1.6 z M 26.400000000000002 11.5 L 22.500000000000004 11.5 L 22.500000000000004 15.4 L 26.400000000000002 15.4 L 26.400000000000002 11.5 z M 11.900000000000002 11.5 L 8 11.5 L 8 15.4 L 11.9 15.4 L 11.9 11.5 z M 16.800000000000004 11.5 L 12.900000000000004 11.5 L 12.900000000000004 15.4 L 16.800000000000004 15.4 L 16.800000000000004 11.5 z M 7.100000000000005 11.5 L 3.2 11.5 L 3.2 15.4 L 7.1 15.4 L 7.1 11.5 z M 16.800000000000004 6.6 L 12.900000000000004 6.6 L 12.900000000000004 10.5 L 16.800000000000004 10.5 L 16.800000000000004 6.6 z M 11.900000000000004 6.6 L 8 6.6 L 8 10.5 L 11.9 10.5 L 11.9 6.6 z" stroke-linecap="round" />
</clipPath>
<path style="stroke: none; stroke-width: 1; stroke-dasharray: none; stroke-linecap: butt; stroke-dashoffset: 0; stroke-linejoin: miter; stroke-miterlimit: 4; fill: rgb(6,29,47); fill-rule: nonzero; opacity: 1;" vector-effect="non-scaling-stroke"  transform=" translate(-588.6, -54.7)" d="M -48.8 -21 L 1226 -21 L 1226 130.4 L -48.8 130.4 z" stroke-linecap="round" />
</g>
		<g transform="matrix(20.41 0 0 20.41 -10302.73 -776.25)"  >
<path style="stroke: none; stroke-width: 1; stroke-dasharray: none; stroke-linecap: butt; stroke-dashoffset: 0; stroke-linejoin: miter; stroke-miterlimit: 4; fill: rgb(6,29,47); fill-rule: nonzero; opacity: 1;" vector-effect="non-scaling-stroke"  transform=" translate(-83.7, -16.66)" d="M 101.9 21.6 C 103.60000000000001 20.1 105.30000000000001 18.700000000000003 107 17.200000000000003 C 107.6 16.700000000000003 108.2 16.200000000000003 108.8 15.600000000000003 C 108.3 15.000000000000004 107.6 14.600000000000003 106.89999999999999 14.300000000000002 C 105.6 13.800000000000002 104.3 14.000000000000002 102.99999999999999 14.700000000000003 C 101.39999999999999 15.600000000000003 100.69999999999999 17.1 100.79999999999998 18.900000000000002 C 100.79999999999998 19.6 100.99999999999999 20.3 101.39999999999998 20.900000000000002 C 101.69999999999997 21.200000000000003 101.79999999999998 21.400000000000002 101.89999999999998 21.6 M 103.89999999999998 23 C 104.69999999999997 23.3 105.69999999999997 23.3 106.59999999999998 23.1 C 106.99999999999999 22.900000000000002 108.19999999999997 22.400000000000002 108.59999999999998 22.5 L 108.79999999999998 22.5 C 109.09999999999998 22.6 109.29999999999998 22.8 109.39999999999998 23.1 C 109.69999999999997 23.700000000000003 109.59999999999998 24.3 108.99999999999997 24.6 L 108.79999999999997 24.700000000000003 C 106.59999999999997 26.000000000000004 104.29999999999997 25.800000000000004 102.09999999999997 24.6 C 101.09999999999997 24 100.29999999999997 23.200000000000003 99.69999999999996 22.200000000000003 L 99.59999999999997 22.000000000000004 C 98.19999999999996 19.600000000000005 98.39999999999996 17.000000000000004 99.99999999999997 14.700000000000003 C 100.49999999999997 13.900000000000002 101.29999999999997 13.300000000000002 102.09999999999997 12.800000000000002 L 102.39999999999996 12.600000000000003 C 104.49999999999996 11.400000000000004 106.69999999999996 11.500000000000004 108.79999999999997 12.500000000000004 C 109.89999999999996 13.100000000000003 110.89999999999996 13.900000000000004 111.49999999999997 15.000000000000004 L 111.59999999999997 15.200000000000003 C 112.09999999999997 16.000000000000004 111.49999999999997 16.700000000000003 110.79999999999997 17.200000000000003 L 108.69999999999997 19.000000000000004 C 106.89999999999998 20.400000000000002 105.39999999999998 21.700000000000003 103.89999999999998 23.000000000000004 z M 120.19999999999997 12 L 120.39999999999998 12 C 121.09999999999998 12 121.59999999999998 12.5 121.59999999999998 13.2 C 121.59999999999998 14.2 120.69999999999997 14.399999999999999 119.89999999999998 14.399999999999999 C 118.89999999999998 14.399999999999999 117.89999999999998 14.999999999999998 117.19999999999997 15.7 C 116.29999999999997 16.599999999999998 115.89999999999998 17.7 115.89999999999998 18.9 L 115.89999999999998 24.5 C 115.89999999999998 25.1 115.49999999999997 25.7 114.79999999999998 25.7 L 114.59999999999998 25.7 C 113.89999999999998 25.7 113.49999999999999 25.2 113.49999999999999 24.5 L 113.49999999999999 18.6 C 113.49999999999999 16.3 114.59999999999998 14.500000000000002 116.39999999999999 13.200000000000001 C 117.69999999999999 12.4 118.89999999999999 12.000000000000002 120.19999999999999 12.000000000000002 z M 91.59999999999997 15.9 L 94.29999999999997 13.2 C 94.59999999999997 13 95.49999999999997 11.899999999999999 95.89999999999996 11.899999999999999 L 96.29999999999997 11.899999999999999 C 96.79999999999997 11.999999999999998 97.19999999999997 12.299999999999999 97.19999999999997 12.899999999999999 L 97.19999999999997 13.099999999999998 C 97.19999999999997 13.499999999999998 96.69999999999997 13.899999999999999 96.49999999999997 14.199999999999998 C 95.99999999999997 14.799999999999997 95.39999999999998 15.299999999999997 94.89999999999998 15.899999999999997 L 92.09999999999998 18.699999999999996 L 95.69999999999997 22.299999999999997 L 96.69999999999997 23.299999999999997 L 97.09999999999998 23.699999999999996 C 97.19999999999997 23.899999999999995 97.29999999999998 23.999999999999996 97.29999999999998 24.199999999999996 L 97.29999999999998 24.5 C 97.19999999999999 25 96.79999999999998 25.4 96.29999999999998 25.4 L 96.09999999999998 25.4 C 95.69999999999997 25.4 95.29999999999998 25 94.99999999999999 24.7 C 94.49999999999999 24.2 93.89999999999999 23.7 93.39999999999999 23.099999999999998 L 91.6 21.4 L 91.6 24.2 C 91.6 24.8 91.19999999999999 25.4 90.5 25.4 L 90.3 25.4 C 89.6 25.4 89.2 24.9 89.2 24.2 L 89.2 8.8 C 89.2 8.200000000000001 89.60000000000001 7.700000000000001 90.3 7.700000000000001 L 90.5 7.700000000000001 C 91.2 7.700000000000001 91.6 8.200000000000001 91.6 8.8 L 91.6 15.9 z M 84.19999999999996 14.4 C 83.89999999999996 14.200000000000001 83.19999999999996 14.200000000000001 82.79999999999995 14.200000000000001 C 80.89999999999995 14.100000000000001 79.49999999999996 15.200000000000001 78.69999999999996 16.900000000000002 C 78.39999999999996 17.500000000000004 78.29999999999995 18.1 78.29999999999995 18.8 C 78.29999999999995 20.8 79.29999999999995 22.2 81.09999999999995 23 C 81.69999999999995 23.3 82.59999999999995 23.4 83.29999999999995 23.4 C 83.89999999999995 23.4 84.79999999999995 23 85.29999999999995 22.799999999999997 L 85.79999999999995 22.799999999999997 C 86.29999999999995 22.9 86.69999999999996 23.199999999999996 86.69999999999996 23.799999999999997 L 86.69999999999996 23.999999999999996 C 86.69999999999996 25.399999999999995 84.09999999999997 25.699999999999996 83.19999999999996 25.799999999999997 C 79.79999999999995 25.999999999999996 77.19999999999996 24.099999999999998 76.19999999999996 20.9 C 75.99999999999996 20.299999999999997 75.99999999999996 19.799999999999997 75.99999999999996 19.2 L 75.99999999999996 18.7 C 75.99999999999996 16.2 77.19999999999996 14.2 79.39999999999996 13 C 80.39999999999996 12.4 81.49999999999996 12.1 82.69999999999996 12.1 L 83.19999999999996 12.1 C 84.39999999999996 12.1 85.59999999999997 12.4 86.59999999999997 13.1 L 86.69999999999996 13.2 L 86.79999999999995 13.299999999999999 C 86.89999999999995 13.499999999999998 86.99999999999996 13.7 86.99999999999996 13.899999999999999 L 86.99999999999996 14.099999999999998 C 86.99999999999996 14.699999999999998 86.59999999999995 14.999999999999998 85.99999999999996 15.099999999999998 L 85.89999999999996 15.099999999999998 C 85.19999999999996 14.899999999999999 84.39999999999996 14.499999999999998 84.19999999999996 14.399999999999999 z M 63.19999999999996 18.7 C 63.19999999999996 20.4 64.09999999999997 21.7 65.49999999999996 22.599999999999998 C 66.19999999999996 22.999999999999996 66.99999999999996 23.2 67.79999999999995 23.2 C 69.49999999999996 23.2 70.79999999999995 22.3 71.69999999999996 20.9 C 72.09999999999997 20.2 72.29999999999995 19.4 72.29999999999995 18.599999999999998 C 72.29999999999995 16.999999999999996 71.49999999999996 15.699999999999998 70.19999999999996 14.799999999999997 C 69.49999999999996 14.299999999999997 68.59999999999997 14.099999999999998 67.79999999999995 14.099999999999998 C 65.89999999999995 14.099999999999998 64.49999999999996 15.099999999999998 63.69999999999995 16.799999999999997 C 63.19999999999995 17.499999999999996 63.19999999999995 18.099999999999998 63.19999999999995 18.699999999999996 z M 67.39999999999996 11.899999999999999 L 67.69999999999996 11.899999999999999 C 70.39999999999996 11.899999999999999 72.39999999999996 13.2 73.69999999999996 15.499999999999998 C 74.19999999999996 16.4 74.49999999999996 17.4 74.49999999999996 18.5 L 74.49999999999996 19 C 74.49999999999996 21.5 73.29999999999995 23.5 71.09999999999995 24.7 C 70.09999999999995 25.3 68.99999999999996 25.599999999999998 67.79999999999995 25.599999999999998 L 67.29999999999995 25.599999999999998 C 64.79999999999995 25.599999999999998 62.799999999999955 24.4 61.59999999999995 22.2 C 60.99999999999995 21.2 60.69999999999995 20.099999999999998 60.69999999999995 18.9 L 60.69999999999995 18.4 C 60.69999999999995 15.899999999999999 61.899999999999956 13.899999999999999 64.09999999999995 12.7 C 65.19999999999995 12.2 66.19999999999995 11.899999999999999 67.39999999999995 11.899999999999999 z M 48 18.7 C 48 20.5 48.9 21.9 50.5 22.7 C 51.1 23 51.8 23.2 52.6 23.2 C 54.4 23.2 55.7 22.4 56.6 20.9 C 57 20.2 57.2 19.4 57.2 18.599999999999998 C 57.2 16.999999999999996 56.5 15.799999999999997 55.2 14.899999999999999 C 54.400000000000006 14.399999999999999 53.6 14.099999999999998 52.6 14.099999999999998 C 50.7 14.099999999999998 49.300000000000004 15.099999999999998 48.5 16.799999999999997 C 48.2 17.499999999999996 48 18.099999999999998 48 18.699999999999996 z M 57.2 13.6 L 57.2 8.7 C 57.2 8.1 57.6 7.499999999999999 58.300000000000004 7.499999999999999 L 58.50000000000001 7.499999999999999 C 59.20000000000001 7.499999999999999 59.60000000000001 7.999999999999999 59.60000000000001 8.7 L 59.60000000000001 19 C 59.60000000000001 21.5 58.400000000000006 23.5 56.20000000000001 24.7 C 55.20000000000001 25.3 54.10000000000001 25.599999999999998 52.90000000000001 25.599999999999998 L 52.40000000000001 25.599999999999998 C 49.90000000000001 25.599999999999998 47.90000000000001 24.4 46.70000000000001 22.2 C 46.10000000000001 21.2 45.80000000000001 20.099999999999998 45.80000000000001 18.9 L 45.80000000000001 18.4 C 45.80000000000001 15.899999999999999 47.000000000000014 13.899999999999999 49.20000000000001 12.7 C 50.20000000000001 12.1 51.30000000000001 11.799999999999999 52.50000000000001 11.799999999999999 L 53.00000000000001 11.799999999999999 C 54.50000000000001 11.899999999999999 56.00000000000001 12.499999999999998 57.20000000000001 13.6 z" stroke-linecap="round" />
</g>
</g>
</g>
</svg>

<svg id="Layer_1" xmlns="http://www.w3.org/2000/svg" xmlns:xlink="http://www.w3.org/1999/xlink" viewBox="0 0 122.5 34.5" width="2500" height="704"><style>.st0{fill:#061d2f}.st1{clip-path:url(#SVGID_4_)}</style><title>Group 3</title><path id="SVGID_1_" class="st0" d="M8.7 24c-1.1 0-2.1-.9-2.1-2s.9-2 2.1-2 2.1.9 2.1 2-1 2-2.1 2zm25.8-10.9c-.2-1.6-1.2-2.9-2.5-3.9l-.5-.4-.4.5c-.8.9-1.1 2.5-1 3.7.1.9.4 1.8.9 2.5-.4.2-.9.4-1.3.6-.9.3-1.8.4-2.7.4H1.1l-.1.6c-.2 1.9.1 3.9.9 5.7l.4.7v.1c2.4 4 6.7 5.8 11.4 5.8 9 0 16.4-3.9 19.9-12.3 2.3.1 4.6-.5 5.7-2.7l.3-.5-.5-.3c-1.3-.8-3.1-.9-4.6-.5zm-12.9-1.6h-3.9v3.9h3.9v-3.9zm0-4.9h-3.9v3.9h3.9V6.6zm0-5h-3.9v3.9h3.9V1.6zm4.8 9.9h-3.9v3.9h3.9v-3.9zm-14.5 0H8v3.9h3.9v-3.9zm4.9 0h-3.9v3.9h3.9v-3.9zm-9.7 0H3.2v3.9h3.9v-3.9zm9.7-4.9h-3.9v3.9h3.9V6.6zm-4.9 0H8v3.9h3.9V6.6z"/><defs><path id="SVGID_2_" d="M8.7 24c-1.1 0-2.1-.9-2.1-2s.9-2 2.1-2 2.1.9 2.1 2-1 2-2.1 2zm25.8-10.9c-.2-1.6-1.2-2.9-2.5-3.9l-.5-.4-.4.5c-.8.9-1.1 2.5-1 3.7.1.9.4 1.8.9 2.5-.4.2-.9.4-1.3.6-.9.3-1.8.4-2.7.4H1.1l-.1.6c-.2 1.9.1 3.9.9 5.7l.4.7v.1c2.4 4 6.7 5.8 11.4 5.8 9 0 16.4-3.9 19.9-12.3 2.3.1 4.6-.5 5.7-2.7l.3-.5-.5-.3c-1.3-.8-3.1-.9-4.6-.5zm-12.9-1.6h-3.9v3.9h3.9v-3.9zm0-4.9h-3.9v3.9h3.9V6.6zm0-5h-3.9v3.9h3.9V1.6zm4.8 9.9h-3.9v3.9h3.9v-3.9zm-14.5 0H8v3.9h3.9v-3.9zm4.9 0h-3.9v3.9h3.9v-3.9zm-9.7 0H3.2v3.9h3.9v-3.9zm9.7-4.9h-3.9v3.9h3.9V6.6zm-4.9 0H8v3.9h3.9V6.6z"/></defs><clipPath id="SVGID_4_"><use xlink:href="#SVGID_2_" overflow="visible"/></clipPath><g class="st1"><path id="SVGID_3_" class="st0" d="M-48.8-21H1226v151.4H-48.8z"/></g><path id="docker_2_" class="st0" d="M101.9 21.6c1.7-1.5 3.4-2.9 5.1-4.4.6-.5 1.2-1 1.8-1.6-.5-.6-1.2-1-1.9-1.3-1.3-.5-2.6-.3-3.9.4-1.6.9-2.3 2.4-2.2 4.2 0 .7.2 1.4.6 2 .3.3.4.5.5.7m2 1.4c.8.3 1.8.3 2.7.1.4-.2 1.6-.7 2-.6h.2c.3.1.5.3.6.6.3.6.2 1.2-.4 1.5l-.2.1c-2.2 1.3-4.5 1.1-6.7-.1-1-.6-1.8-1.4-2.4-2.4l-.1-.2c-1.4-2.4-1.2-5 .4-7.3.5-.8 1.3-1.4 2.1-1.9l.3-.2c2.1-1.2 4.3-1.1 6.4-.1 1.1.6 2.1 1.4 2.7 2.5l.1.2c.5.8-.1 1.5-.8 2l-2.1 1.8c-1.8 1.4-3.3 2.7-4.8 4zm16.3-11h.2c.7 0 1.2.5 1.2 1.2 0 1-.9 1.2-1.7 1.2-1 0-2 .6-2.7 1.3-.9.9-1.3 2-1.3 3.2v5.6c0 .6-.4 1.2-1.1 1.2h-.2c-.7 0-1.1-.5-1.1-1.2v-5.9c0-2.3 1.1-4.1 2.9-5.4 1.3-.8 2.5-1.2 3.8-1.2zm-28.6 3.9l2.7-2.7c.3-.2 1.2-1.3 1.6-1.3h.4c.5.1.9.4.9 1v.2c0 .4-.5.8-.7 1.1-.5.6-1.1 1.1-1.6 1.7l-2.8 2.8 3.6 3.6 1 1 .4.4c.1.2.2.3.2.5V24.5c-.1.5-.5.9-1 .9h-.2c-.4 0-.8-.4-1.1-.7-.5-.5-1.1-1-1.6-1.6l-1.8-1.7v2.8c0 .6-.4 1.2-1.1 1.2h-.2c-.7 0-1.1-.5-1.1-1.2V8.8c0-.6.4-1.1 1.1-1.1h.2c.7 0 1.1.5 1.1 1.1v7.1zm-7.4-1.5c-.3-.2-1-.2-1.4-.2-1.9-.1-3.3 1-4.1 2.7-.3.6-.4 1.2-.4 1.9 0 2 1 3.4 2.8 4.2.6.3 1.5.4 2.2.4.6 0 1.5-.4 2-.6h.5c.5.1.9.4.9 1v.2c0 1.4-2.6 1.7-3.5 1.8-3.4.2-6-1.7-7-4.9-.2-.6-.2-1.1-.2-1.7v-.5c0-2.5 1.2-4.5 3.4-5.7 1-.6 2.1-.9 3.3-.9h.5c1.2 0 2.4.3 3.4 1l.1.1.1.1c.1.2.2.4.2.6v.2c0 .6-.4.9-1 1h-.1c-.7-.2-1.5-.6-1.7-.7zm-21 4.3c0 1.7.9 3 2.3 3.9.7.4 1.5.6 2.3.6 1.7 0 3-.9 3.9-2.3.4-.7.6-1.5.6-2.3 0-1.6-.8-2.9-2.1-3.8-.7-.5-1.6-.7-2.4-.7-1.9 0-3.3 1-4.1 2.7-.5.7-.5 1.3-.5 1.9zm4.2-6.8h.3c2.7 0 4.7 1.3 6 3.6.5.9.8 1.9.8 3v.5c0 2.5-1.2 4.5-3.4 5.7-1 .6-2.1.9-3.3.9h-.5c-2.5 0-4.5-1.2-5.7-3.4-.6-1-.9-2.1-.9-3.3v-.5c0-2.5 1.2-4.5 3.4-5.7 1.1-.5 2.1-.8 3.3-.8zM48 18.7c0 1.8.9 3.2 2.5 4 .6.3 1.3.5 2.1.5 1.8 0 3.1-.8 4-2.3.4-.7.6-1.5.6-2.3 0-1.6-.7-2.8-2-3.7-.8-.5-1.6-.8-2.6-.8-1.9 0-3.3 1-4.1 2.7-.3.7-.5 1.3-.5 1.9zm9.2-5.1V8.7c0-.6.4-1.2 1.1-1.2h.2c.7 0 1.1.5 1.1 1.2V19c0 2.5-1.2 4.5-3.4 5.7-1 .6-2.1.9-3.3.9h-.5c-2.5 0-4.5-1.2-5.7-3.4-.6-1-.9-2.1-.9-3.3v-.5c0-2.5 1.2-4.5 3.4-5.7 1-.6 2.1-.9 3.3-.9h.5c1.5.1 3 .7 4.2 1.8z"/></svg>
